src/pos-icons/ladybug.svg

<svg height="24" viewBox="0 0 24 24" width="24" xmlns="http://www.w3.org/2000/svg"><path d="m12 5c.74 0 1.47.1 2.15.29l1.63-2.83c.28-.46.89-.64 1.37-.36.48.27.64.9.35 1.36l-1.5 2.61c1.22.71 2.23 1.72 2.93 2.93h-13.86c.7-1.21 1.71-2.22 2.93-2.93l-1.5-2.61c-.29-.46-.13-1.09.35-1.36.48-.28 1.09-.1 1.37.36l1.63 2.83c.68-.19 1.41-.29 2.15-.29m8 8c0 4.17-3.18 7.59-7.25 7.97v-10.47h6.85c.26.79.4 1.63.4 2.5m-16 0c0-.87.14-1.71.4-2.5h6.85v10.47c-4.07-.38-7.25-3.8-7.25-7.97z"/></svg>

<?xml version="1.0" encoding="UTF-8"?><!DOCTYPE svg PUBLIC "-//W3C//DTD SVG 1.1//EN" "http://www.w3.org/Graphics/SVG/1.1/DTD/svg11.dtd"><svg xmlns="http://www.w3.org/2000/svg" xmlns:xlink="http://www.w3.org/1999/xlink" version="1.1" id="mdi-ladybug" width="24" height="24" viewBox="0 0 24 24"><path d="M12,5C12.74,5 13.47,5.1 14.15,5.29L15.78,2.46C16.06,2 16.67,1.82 17.15,2.1C17.63,2.37 17.79,3 17.5,3.46L16,6.07C17.22,6.78 18.23,7.79 18.93,9H5.07C5.77,7.79 6.78,6.78 8,6.07L6.5,3.46C6.21,3 6.37,2.37 6.85,2.1C7.33,1.82 7.94,2 8.22,2.46L9.85,5.29C10.53,5.1 11.26,5 12,5M20,13C20,17.17 16.82,20.59 12.75,20.97V10.5H19.6C19.86,11.29 20,12.13 20,13M4,13C4,12.13 4.14,11.29 4.4,10.5H11.25V20.97C7.18,20.59 4,17.17 4,13Z" /></svg>
